X:1
T:Jesus Alegria dos Homens
T:Jesus Alegria dos Homens
T:J.S.Bach
T:Copy Left
T:Copy Left
T:Copy Left
T:Copy Left
C:J.S.Bach
Z:Copy Left
%%score { 1 | 2 }
L:1/8
Q:1/4=60
M:3/4
K:G
V:1 treble nm="Piano" snm="Pno."
V:2 bass 
V:1
 (3z GA (3Bdc (3ced | (3dgf (3gdB (3GAB | (3cde (3dcB (3ABG | (3FGA (3DFA (3cBA | %4
 (3BGA (3Bdc (3ced | (3dgf (3gdB (3GAB | (3Edc (3BAG (3DGF | (3GBd (3gdB (3GBd | B4 c2 | d4 d2 | %10
 c4 B2 | (3ADE (3FAG (3AcB | (3cAF (3DFA (3cBA | B4 c2 | d4 B2 | AB/c/ B2 A2 | (3GBA (3Bdc (3ced | %17
 (3dgf (3gdB (3GAB | (3cde (3dcB (3ABG | (3FGA (3DFA (3cBA | (3BGA (3Bdc (3ced | %21
 (3dgf (3gdB (3GAB | (3Edc (3BAG (3DGF | (3GBd (3gdB (3GBd | (3^edB (3GBd (3=ecA | %25
 (3FAc (3dBG (3EGB | (3cAF (3DFA (3cBA | (3BGA (3Bdc (3ced | (3dgf (3gdB (3GAB | %29
 (3cde (3dcB (3ABG | (3FGA (3DFA (3cBA | (3BGA (3Bdc (3ced | (3dgf (3gdB (3GAB | %33
 (3Edc (3BAG (3DGF | G4 z2 | G,2 G2 E2 | B,2 E2!8vb(! E,2!8vb)! | A,2 B,2 C2 | D2 F2 D2 | %39
 G2 E2 C2 | B,2 E2 D2 | C2 ^C2 D2 | (G,2 (3:2:2G,2) G (3:2:2D2 B, | G,2 F2 E2 | F2 E2 D2 | %45
 E2 F2 G2 | D2 (3:2:2D2 D (3:2:2D2 E | D2 (3:2:2z2 D (3:2:2D2 D | G2 F2 E2 | B2 B,2 E2 | C2 D2 D2 | %51
 G,2 G2 E2 | B,2 E2!8vb(! E,2!8vb)! | A,2 B,2 C2 | D2 F2 D2 | G2 E2 C2 | B,2 E2 D2 | C2 ^C2 D2 | %58
 G,4 (G,2 | G,2) G,4 | G,4 (G,2 | G,2) F,4 | G,2 G2 E2 | B,2 E2!8vb(! E,2!8vb)! | A,2 B,2 C2 | %65
 D2 F2 D2 | G2 E2 C2 | B,2 E2 D2 | C2 ^C2 D2 | G6 |] %70
V:2
 G,,2 G,2 E,2 | B,,2 E,2 E,,2 | A,,2 B,,2 C,2 | D,2 F,2 D,2 | G,2 E,2 C,2 | B,,2 E,2 D,2 | %6
 C,2 ^C,2 D,2 | (G,,2 (3:2:2G,,2) G, (3:2:2D,2 B,, | G,,2 F,2 E,2 | F,2 E,2 D,2 | E,2 F,2 G,2 | %11
 D,2 (3:2:2D,2 D, (3:2:2D,2 D, | D,,2 (3:2:2z2 D, (3:2:2D,2 D, | G,2 F,2 E,2 | B,2 B,,2 E,2 | %15
 C,2 D,2 D,,2 | G,,2 G,2 E,2 | B,,2 E,2 E,,2 | A,,2 B,,2 C,2 | D,2 F,2 D,2 | G,2 E,2 C,2 | %21
 B,,2 E,2 D,2 | C,2 ^C,2 D,2 | G,,4 (G,,2 | G,,2) G,,4 | G,,4 (G,,2 | G,,2) G,,2 F,,2 | %27
 G,,2 G,2 E,2 | B,,2 E,2 E,,2 | A,,2 B,,2 C,2 | D,2 F,2 D,2 | G,2 E,2 C,2 | B,,2 E,2 D,2 | %33
 C,2 ^C,2 D,2 | G,,4 D,2 | (3:2:2G,2 A, (3B,DC (3CED | (3DGF (3GDB, (3G,A,B, | %37
 (3CDE (3DCB, (3A,B,G, | (3F,G,A, (3D,F,A, (3CB,A, | (3B,G,A, (3B,DC (3CED | %40
 (3DGF (3GDB, (3G,A,B, | (3E,DC (3B,A,G, (3D,G,F, | (3G,B,D (3GDB, (3G,B,D | B,4 C2 | D4 D2 | %45
 C4 B,2 | (3A,D,E, (3F,A,G, (3A,CB, | (3CA,F, (3D,F,A, (3CB,A, | B,4 C2 | D4 B,2 | %50
 A,B,/C/ B,2 A,2 | (3G,B,A, (3B,DC (3CED | (3DGF (3GDB, (3G,A,B, | (3CDE (3DCB, (3A,B,G, | %54
 (3F,G,A, (3D,F,A, (3CB,A, | (3B,G,A, (3B,DC (3CED | (3DGF (3GDB, (3G,A,B, | %57
 (3E,DC (3B,A,G, (3D,G,F, | (3G,B,D (3GDB, (3G,B,D | (3^EDB, (3G,B,D (3=ECA, | %60
 (3F,A,C (3DB,G, (3E,G,B, | (3CA,F, (3D,F,A, (3CB,A, | (3:2:2G,2 A, (3B,DC (3CED | %63
 (3DGF (3GDB, (3G,A,B, | (3CDE (3DCB, (3A,B,G, | (3F,G,A, (3D,F,A, (3CB,A, | %66
 (3B,G,A, (3B,DC (3CED | (3DGF (3GDB, (3G,A,B, | (3E,DC (3B,A,G, (3D,G,F, | G,6 |] %70

